DevCon_2018/images/nnt.svg

<svg viewBox="0 0 767.04 68.9" xmlns="http://www.w3.org/2000/svg"><path d="m6.44 68.11h-6.44v-66.72h8.84l37.63 59.5q-.21-10.3-.21-31.19v-28.31h6.44v66.72h-8.83l-37.63-59.5q.21 10.7.2 31.29z" fill="#3cb034"/><path d="m107.28 68.11h-37.95v-66.72h37.32v5.61h-30.87v25h27.22v5.64h-27.22v24.83h31.5z" fill="#3cb034"/><path d="m148 0q14.35 0 22.46 9.26t8.1 25.14q0 15.9-8.21 25.2t-22.24 9.3q-14 0-22.51-9.4t-8.47-25.1q0-15.69 8.26-25t22.61-9.4zm0 5.94q-11.39 0-17.77 7.57t-6.4 20.84q0 13.27 6.6 20.94t17.8 7.71q11.24 0 17.46-7.57t6.24-21q0-13.41-6.29-20.94t-17.64-7.55z" fill="#3cb034"/><path d="m198.54 68.11h-6.44v-66.72h8.83l37.63 59.5q-.21-10.3-.21-31.19v-28.31h6.45v66.72h-8.8l-37.67-59.5q.21 10.7.21 31.29z" fill="#757575"/><path d="m299.37 68.11h-37.94v-66.72h37.32v5.61h-30.87v25h27.23v5.64h-27.23v24.83h31.49z" fill="#757575"/><path d="m335.23 68.11h-8.83l-18.19-66.72h6.79l16 60.48q5.92-20 18-59.49h7.58l19.42 59.89q5.1-22.36 14-60.88h6.44l-15.9 66.72h-8.84l-18.79-57.71q-3.43 11.77-17.68 57.71z" fill="#757575"/><path d="m448.64 50.89q0 8.7-6.13 13.31t-16.32 4.61a35.15 35.15 0 0 1 -17.78-4.36v-6.83a26.63 26.63 0 0 0 8.06 3.76 38.79 38.79 0 0 0 11.17 1.48 16.86 16.86 0 0 0 10.36-3.06 9.68 9.68 0 0 0 4.1-8.12q0-5.05-3.12-7.72-3.42-3-12.68-6.74-8.62-3.55-10.34-4.95t-3.38-2.87a10.06 10.06 0 0 1 -2.39-3 17.77 17.77 0 0 1 -2-7.82q0-8.41 6.34-13.12a25 25 0 0 1 15.3-4.67q8.94 0 14.76 3v6.83a24.28 24.28 0 0 0 -6.59-2.7 30.23 30.23 0 0 0 -7.9-1.09q-7 0-11.12 3.12a9.81 9.81 0 0 0 -4.16 8.27 9.75 9.75 0 0 0 4.78 8.51 44.15 44.15 0 0 0 8.94 4.7c3.39 1.36 5.72 2.31 7 2.87a45.53 45.53 0 0 1 4.79 2.63 18.47 18.47 0 0 1 4.36 3.46 15.53 15.53 0 0 1 3.95 10.5z" fill="#757575"/><g fill="#3cb034"><path d="m502.18 7h-19.44v61.11h-6.45v-61.11h-19.29v-5.61h45.22z"/><path d="m539.8 0q14.36 0 22.46 9.26t8.11 25.14q0 15.9-8.22 25.2t-22.24 9.3q-14 0-22.51-9.4t-8.47-25.1q0-15.69 8.27-25t22.6-9.4zm0 5.94q-11.37 0-17.77 7.57t-6.4 20.84q0 13.27 6.61 20.94t17.76 7.71q11.24 0 17.47-7.57t6.23-21q0-13.41-6.29-20.94t-17.66-7.55z"/><path d="m604.36 68.11h-20.48v-66.72h20q15.38 0 25.26 9.1t9.86 23.86q0 19.51-15.38 28.81-8.04 4.95-19.26 4.95zm-.52-61.11h-13.52v55.47h14a31.66 31.66 0 0 0 12.68-2.38 22 22 0 0 0 8.73-6.43 30.24 30.24 0 0 0 6.45-19.41 26.23 26.23 0 0 0 -8-19.25q-7.87-8-20.34-8z"/><path d="m654.57 68.11h-7l24.77-66.72h9.36l24.22 66.72h-7l-6.62-18.51h-31zm22.43-61.58q-4 11.49-13.72 37.62h27.13z"/><path d="m743.13 68.11h-6.44v-25l-23.69-41.72h7.39l5.5 9.8 14 25.74q.83-1.89 19.75-35.54h7.36l-23.87 41.77z"/></g></svg>

<svg xmlns="http://www.w3.org/2000/svg" viewBox="0 0 767.04 68.9"><defs><style>.cls-1{fill:#3cb034;}.cls-1,.cls-2{isolation:isolate;}.cls-2{fill:#757575;}</style></defs><title>资源 2</title><g id="图层_2" data-name="图层 2"><g id="图层_1-2" data-name="图层 1"><path class="cls-1" d="M6.44,68.11H0V1.39H8.84l37.63,59.5q-.21-10.3-.21-31.19V1.39H52.7V68.11H43.87L6.24,8.61q.21,10.7.2,31.29Z"/><path class="cls-1" d="M107.28,68.11H69.33V1.39h37.32V7H75.78V32H103v5.64H75.78V62.47h31.5Z"/><path class="cls-1" d="M148,0q14.35,0,22.46,9.26t8.1,25.14q0,15.9-8.21,25.2t-22.24,9.3q-14,0-22.51-9.4t-8.47-25.1q0-15.69,8.26-25T148,0ZM148,5.94q-11.39,0-17.77,7.57t-6.4,20.84q0,13.27,6.6,20.94T148.23,63q11.24,0,17.46-7.57t6.24-21q0-13.41-6.29-20.94T148,5.94Z"/><path class="cls-2" d="M198.54,68.11H192.1V1.39h8.83l37.63,59.5q-.21-10.3-.21-31.19V1.39h6.45V68.11H236L198.33,8.61q.21,10.7.21,31.29Z"/><path class="cls-2" d="M299.37,68.11H261.43V1.39h37.32V7H267.88V32h27.23v5.64H267.88V62.47h31.49Z"/><path class="cls-2" d="M335.23,68.11H326.4L308.21,1.39H315l16,60.48q5.92-20,18-59.49h7.58L376,62.27q5.1-22.36,14-60.88h6.44l-15.9,66.72h-8.84L352.91,10.4Q349.48,22.17,335.23,68.11Z"/><path class="cls-2" d="M448.64,50.89q0,8.7-6.13,13.31t-16.32,4.61a35.15,35.15,0,0,1-17.78-4.36V57.62a26.63,26.63,0,0,0,8.06,3.76,38.79,38.79,0,0,0,11.17,1.48A16.86,16.86,0,0,0,438,59.8a9.68,9.68,0,0,0,4.1-8.12q0-5.05-3.12-7.72-3.42-3-12.68-6.74-8.62-3.55-10.34-4.95t-3.38-2.87a10.06,10.06,0,0,1-2.39-3,17.77,17.77,0,0,1-2-7.82q0-8.41,6.34-13.12A25,25,0,0,1,429.83.79q8.94,0,14.76,3v6.83A24.28,24.28,0,0,0,438,7.92a30.23,30.23,0,0,0-7.9-1.09q-7,0-11.12,3.12a9.81,9.81,0,0,0-4.16,8.27,9.75,9.75,0,0,0,4.78,8.51,44.15,44.15,0,0,0,8.94,4.7c3.39,1.36,5.72,2.31,7,2.87a45.53,45.53,0,0,1,4.79,2.63,18.47,18.47,0,0,1,4.36,3.46A15.53,15.53,0,0,1,448.64,50.89Z"/><path class="cls-1" d="M502.18,7H482.74V68.11h-6.45V7H457V1.39h45.22Z"/><path class="cls-1" d="M539.8,0q14.36,0,22.46,9.26t8.11,25.14q0,15.9-8.22,25.2t-22.24,9.3q-14,0-22.51-9.4t-8.47-25.1q0-15.69,8.27-25T539.8,0Zm0,5.94q-11.37,0-17.77,7.57t-6.4,20.84q0,13.27,6.61,20.94T540,63q11.24,0,17.47-7.57t6.23-21q0-13.41-6.29-20.94T539.75,5.94Z"/><path class="cls-1" d="M604.36,68.11H583.88V1.39h20q15.38,0,25.26,9.1T639,34.35q0,19.51-15.38,28.81Q615.58,68.11,604.36,68.11ZM603.84,7H590.32V62.47h14A31.66,31.66,0,0,0,617,60.09a22,22,0,0,0,8.73-6.43,30.24,30.24,0,0,0,6.45-19.41,26.23,26.23,0,0,0-8-19.25Q616.31,7,603.84,7Z"/><path class="cls-1" d="M654.57,68.11h-7L672.34,1.39h9.36l24.22,66.72h-7L692.3,49.6h-31ZM677,6.53q-4,11.49-13.72,37.62h27.13Z"/><path class="cls-1" d="M743.13,68.11h-6.44v-25L713,1.39h7.39l5.5,9.8,14,25.74q.83-1.89,19.75-35.54H767L743.13,43.16Z"/></g></g></svg>
